X:1
T:O God, my gracious God, to thee
T:O God, my gracious God, to thee (John Wall Callcott)
C:John Wall Callcott
Z:p75, The Psalms of David,
Z:ed. Samuel Arnold,
Z:London: 1791
%%score [ 1 2 3 4 ]
L:1/8
M:4/2
K:G
V:1 treble nm="Soprano" snm="S."
V:2 treble nm="Alto" snm="A."
V:3 treble-8 transpose=-12 nm="Tenor" snm="T."
V:4 bass nm="Bass" snm="B."
V:1
 z4 (G3 A) B4 c4 | d4 e4 d4 (c2 B2) | A4 e4 d4 c4 | B4 g4 c4 B4 | A4 A4 B4 c4 | d8 d8 | d12 ^c4 | %7
w: My _ life, while|I that life en- *|joy, In bles- sing|God I will em-|ploy, With lif- ted|hands a-|dore thy|
w: O _ God, my|gra- cious God, to _|thee My mor- ning|pray’r shall of- fer’d|be; For thee my|thirs- ty|soul doth|
w: O _ to my|long- ing eyes once _|more That view of|glo- rious pow’r re-|store Which thy ma-|jes- tic|house dis-|
 d8 z4 d4 | d8 c8 | B12 d4 | c8 B8 | A8 z4 c4 | c8 B8 | A12 c4 | (B4 d4) (c4 B4) | A4 c4 B4 e4 | %16
w: name. My|soul's con-|tent shall|be as|great As|theirs who|choi- cest|dain- * ties _|eat, While I with|
w: pant. My|faint- ing|flesh im-|plores thy|grace With-|in this|dry and|bar- * ren _|place, Where I re-|
w: plays: Be-|cause to|me thy|won- drous|love Than|life it-|self does|dea- * rer _|prove, My lips shall|
 (d8 c8- | c4) d4 B4 c4 | (A4 d8) (e2 f2) | g4 c4 d4 e4 | B8 A8 | G12 |] %22
w: joy _|_ his praise pro-|claim, _ while _|I with joy his|praise pro-|claim.|
w: fresh- *|* ing wa- ters|want, _ where _|I re- fresh- ing|wa- ters|want.|
w: al- *|* ways speak thy|praise, _ my _|lips shall al- ways|speak thy|praise.|
V:2
 z4 D4 G4 G4 | G4 G4 G4 G4 | F4 G4 G4 E4 | D4 D4 C4 (D2 E2) | F4 F4 G4 A4 | (B4 A4 G4) F4 | %6
w: My life, while|I that life en-|joy, In bles- sing|God I will em- *|ploy, With lif- ted|hands _ _ a-|
w: O God, my|gra- cious God, to|thee My mor- ning|pray’r shall of- fer’d _|be; For thee my|thirs- * * ty|
w: O to my|long- ing eyes once|more That view of|glo- rious pow’r re- *|store Which thy ma-|jes- * * tic|
 (E4 D2 E2 F4) E4 | D8 z4 B4 | B8 A8 | ^G12 E4 | (E8 =F4) (E2 D2) | C8 z4 A4 | A8 G8 | F12 D4 | %14
w: dore _ _ _ thy|name. My|soul's con-|tent shall|be _ as _|great As|theirs who|choi- cest|
w: soul _ _ _ doth|pant. My|faint- ing|flesh im-|plores _ thy _|grace With-|in this|dry and|
w: house _ _ _ dis-|plays: Be-|cause to|me thy|won- * drous _|love Than|life it-|self does|
 (D8 E2 F2) G4 | F4 z4 z8 | z4 G4 E4 E4 | D4 D4 D4 E4 | (D4 F8) (G2 A2) | G4 G4 G4 G4 | G8 F8 | %21
w: dain- * * ties|eat,|While I with|joy his praise pro-|claim, _ while that|I with joy his|praise pro-|
w: bar- * * ren|place,|Where I re-|fresh- ing wa- ters|want, _ where _|I re- fresh- ing|wa- ters|
w: dea- * * rer|prove,|My lips shall|al- ways speak thy|praise, _ my _|lips shall al- ways|speak thy|
 G12 |] %22
w: claim.|
w: want.|
w: praise.|
V:3
 z4 (B3 c) d4 e4 | B4 c4 G4 e4 | A4 c4 B4 A4 | B4 g4 f4 g4 | d8 z8 | z4 F4 G4 A4 | %6
w: My _ life, while|I that life en-|joy, In bles- sing|God I will em-|ploy,|With lif- ted|
w: O _ God, my|gra- cious God, to|thee My mor- ning|pray’r shall of- fer’d|be;|For thee my|
w: O _ to my|long- ing eyes once|more That view of|glo- rious pow’r re-|store|Which thy ma-|
 B4 (A2 B2) A6 G2 | F8 z8 | z4 B4 c4 d4 | e12 ^G4 | A12 ^G4 | A8 z8 | z4 A4 B4 c4 | d12 F4 | %14
w: hands a- * dore thy|name.|My soul's con-|tent shall|be as|great|As theirs who|choi- cest|
w: thirs- ty _ soul doth|pant.|My faint- ing|flesh im-|plores thy|grace|With- in this|dry and|
w: jes- tic _ house dis-|plays:|Be- cause to|me thy|won- drous|love|Than life it-|self does|
 (G4 B4) (A4 G4) | D4 A4 G4 c4 | (B8 c6) B2 | (A4 F4 G4) A4 | F8 A8 | d4 e4 d4 G4 | d12 c4 | B12 |] %22
w: dain- * ties _|eat, While I with|joy _ his|praise _ _ pro-|claim, while|I with joy his|praise pro-|claim.|
w: bar- * ren _|place, Where I re-|fresh- * ing|wa- * * ters|want, where|I re- fresh- ing|wa- ters|want.|
w: dea- * rer _|prove, My lips shall|al- * ways|speak _ _ thy|praise, my|lips shall al- ways|speak thy|praise.|
V:4
"^Org." [G,,D,]4 G,4 G,4"^64" G,4 |"^53" G,4 C,4"^6" B,,4 C,4 | D,4 C,4"^64" D,4 (E,2 F,2) | %3
w: * My life, while|I that life en-|joy, In bles- sing _|
w: * O God, my|gra- cious God, to|thee My mor- ning _|
w: * O to my|long- ing eyes once|more That view of _|
 G,4"^6" B,,4"^6" A,,4 G,,4 | D,8 z8 | z4 D,4"^7" E,4"^6" F,4 | %6
w: God I will em-|ploy,|With lif- ted|
w: pray’r shall of- fer’d|be;|For thee my|
w: glo- rious pow’r re-|store|Which thy ma-|
"^65" G,4"^6" (F,2 G,2)"^64" A,4"^5#" A,,4 | D,8 z8 | z16 | z4"^#" E,4"^ü" ^G,4 E,4 | %10
w: hands a- * dore thy|name.||My soul's con-|
w: thirs- ty _ soul doth|pant.||My faint- ing|
w: jes- tic _ house dis-|plays:||Be- cause to|
 A,4"^6" C,4"^6§" D,4"^#" E,4 | A,,8 z8 | z16 | z4 D,4"^6" F,4 D,4 | G,4"^6" B,,4"^6" C,4 G,,4 | %15
w: tent shall be as|great||As theirs who|choi- cest dain- ties|
w: flesh im- plores thy|grace||With- in this|dry and bar- ren|
w: me thy won- drous|love||Than life it-|self does dea- rer|
 D,8 z8 | %16
w: eat,|
w: place,|
w: prove,|
"^The first verse only of the text is underlaid in the source, with verses 2-5 printed after the music. The parts are identified in thesource as Treble, Counter, Tenor and Bass: the top three parts are in the treble clef, with the Counter and Tenor an octaveabove sounding pitch. The original time signature is common time, but the piece is barred with four minims to a bar." z4 G,4 A,4"^6" E,4 | %17
w: While I with|
w: Where I re-|
w: My lips shall|
"^65" F,4 D,4 G,4"^6" C,4 | D,8"^42" C,8 |"^6" B,,4"^7" A,,4"^6" B,,4 C,4 |"^64" D,8"^53" D,8 | %21
w: joy his praise pro-|claim, while|I with joy his|praise pro-|
w: fresh- ing wa- ters|want, where|I re- fresh- ing|wa- ters|
w: al- ways speak thy|praise, my|lips shall al- ways|speak thy|
 G,,12 |] %22
w: claim.|
w: want.|
w: praise.|

